X:1777
T:Dick Sands' Hornpipe
M:C|
L:1/8
B:O'Neill's 1777
R:Hornpipe
Z:"Transcribed by Bob Safranek, rjs@gsp.org"
K:A
   ((3efg) | a>ae>c A>cf>e | d>cB>A G>BE>G | A>Bc>d e>cA>c | B>e^d>f e>ef>g  |
             a>ae>c A>cf>e | d>cB>A G>BE>G | A>ae>c f>dB>G | A2 (3.A.A.A A2 :|
|:    d>c  | B>cB>A G>EF>G | A>Bc>d e>cA>c | d>cd>e f>ed>c | B>e^d>f e>ef>g  |
((3aba) e>c ((3fgf) d>B |((3efd) c>A ((3ded) B>G |A>ae>c f>dB>G|A2 (3.A.A.A A2:|


